svg/mountain railway.svg

<?xml version="1.0" encoding="UTF-8" standalone="no"?>
<svg
   width="128px"
   height="128px"
   version="1.1"
   xml:space="preserve"
   style="fill-rule:evenodd;clip-rule:evenodd;stroke-linejoin:round;stroke-miterlimit:2;"
   id="svg24"
   sodipodi:docname="mountain railway.svg"
   inkscape:version="1.3 (0e150ed6c4, 2023-07-21)"
   xmlns:inkscape="http://www.inkscape.org/namespaces/inkscape"
   xmlns:sodipodi="http://sodipodi.sourceforge.net/DTD/sodipodi-0.dtd"
   xmlns="http://www.w3.org/2000/svg"
   xmlns:svg="http://www.w3.org/2000/svg"><defs
     id="defs24"><clipPath
       clipPathUnits="userSpaceOnUse"
       id="clipPath28"><g
         id="g30"
         style="stroke-width:1.41171"
         transform="matrix(1.0000015,0,0,0.50177377,3.6109056e-4,62.386346)"><g
           id="g29"
           style="stroke-width:1.41171"><rect
             x="0"
             y="0.024"
             width="128"
             height="127.977"
             id="rect28"
             style="stroke-width:1.41171" /></g></g></clipPath><clipPath
       clipPathUnits="userSpaceOnUse"
       id="clipPath30"><g
         id="g32"
         style="stroke-width:0.700517"
         transform="matrix(1.0000015,0,0,2.0378007,3.6109056e-4,-132.83823)"><g
           id="g31"
           style="stroke-width:0.700517"><rect
             x="0"
             y="0.024"
             width="128"
             height="127.977"
             id="rect30"
             style="stroke-width:0.700517" /></g></g></clipPath><clipPath
       clipPathUnits="userSpaceOnUse"
       id="clipPath33"><g
         id="g35"
         transform="translate(235.15438,-0.12094274)"><g
           id="g34"
           style="stroke-width:1"><rect
             x="0"
             y="0.024"
             width="128"
             height="127.977"
             id="rect33"
             style="stroke-width:1" /></g></g></clipPath><clipPath
       clipPathUnits="userSpaceOnUse"
       id="clipPath37"><g
         id="g39"
         transform="translate(351.06527,-0.45389706)"><g
           id="g38"
           style="stroke-width:1"><rect
             x="0"
             y="0.024"
             width="128"
             height="127.977"
             id="rect37"
             style="stroke-width:1" /></g></g></clipPath><clipPath
       id="_clip2"><rect
         x="258.92999"
         y="3.023"
         width="122.14"
         height="122.118"
         id="rect3" /></clipPath></defs><sodipodi:namedview
     id="namedview24"
     pagecolor="#ffffff"
     bordercolor="#000000"
     borderopacity="0.25"
     inkscape:showpageshadow="2"
     inkscape:pageopacity="0.0"
     inkscape:pagecheckerboard="0"
     inkscape:deskcolor="#d1d1d1"
     inkscape:zoom="2.867097"
     inkscape:cx="76.035097"
     inkscape:cy="71.675286"
     inkscape:window-width="1366"
     inkscape:window-height="697"
     inkscape:window-x="-8"
     inkscape:window-y="-8"
     inkscape:window-maximized="1"
     inkscape:current-layer="svg24" /><g
     clip-path="url(#_clip2)"
     id="g6"
     transform="matrix(1.04798,0,0,1.04798,-271.3524,-3.14393)"><g
       transform="matrix(1.20326,0,0,1.20326,242.991,-26.0179)"
       id="g3"><path
         d="m 56.625,24.117 c -1.586,-0.005 -3.3,0.236 -5.145,0.72 -3.164,0.83 -4.705,3.4 -5.826,5.28 -0.502,0.83 -1.005,1.693 -1.484,2.102 l -0.162,0.129 c -0.783,0.689 -0.936,0.793 -1.45,0.898 -1.004,0.21 -1.423,0.012 -2.533,-0.537 -1.53,-0.747 -3.83,-1.893 -7.146,-0.854 -3.363,1.075 -5.63,4.288 -8,8.784 -2.5,4.74 -6.047,13.881 -11.633,25.507 v 59.477 H 114.754 V 69.358 C 102.33,45.418 101.23,42.85 100.352,41.395 98.915,39.002 95.867,37.04 93.508,37.169 c -2.359,0.128 -5.068,1.47 -6.48,3.525 -0.456,0.678 -3.76,5.56 -8.198,12.135 -1.296,-2.569 -2.535,-4.986 -3.656,-7.217 -4.508,-8.886 -6.89,-13.594 -7.567,-14.761 -2.61,-4.493 -6.224,-6.72 -10.982,-6.735 z"
         style="fill:#757f3f;fill-rule:nonzero"
         id="path3" /></g><g
       transform="matrix(1.20326,0,0,1.20326,242.991,-26.0179)"
       id="g4" /><g
       transform="translate(256,1.06068)"
       id="g5"><path
         d="m 119.06,106.566 c -0.49,0.64 -0.85,1.34 -1.65,1.47 -1.64,0.27 -3.13,1 -4.32,2.05 -0.79,0.7 -1.95,0.8 -2.84,0.22 l -0.02,-0.02 c -1.91,-3.61 -5.53,-5.26 -9.9,-5.26 -4.11,0 -7.88,1.36 -9.88,4.63 -0.56,0.9 -1.68,1.2 -2.64,0.74 -1.196,-0.573 -2.515,-0.841 -3.84,-0.78 -0.96,0.04 -1.81,-0.55 -2.17,-1.44 -2.06,-5.2 -6.95,-7.4 -12.89,-7.4 -6.11,0 -11.47,2.39 -13.42,7.83 -0.18,0.5 -0.5,0.94 -0.97,1.21 -0.22,0.13 -0.44,0.27 -0.64,0.43 -0.61,0.49 -1.44,0.52 -2.15,0.19 -1.141,-0.527 -2.383,-0.8 -3.64,-0.8 -1.34,0 -2.61,0.31 -3.75,0.86 -0.86,0.41 -1.88,0.24 -2.54,-0.45 -1.63,-1.72 -3.9,-2.694 -6.27,-2.69 -2.52,0 -4.78,1.08 -6.37,2.79 -0.76,0.83 -2,0.87 -2.87,0.15 -0.903,-0.746 -2.039,-1.153 -3.21,-1.15 -1.05,0 -2.02,0.33 -2.82,0.88 -0.39,0.27 -1.46,0.41 -2.47,0.06 -0.83,-0.28 -1.59,-0.95 -2.1,-1.66 -3.57,-5.05 -8.01,-6.96 -9.3,-7.56 -2.4,-1.13 -3.46,-0.81 -3.46,-0.81 v 18.81 c 0,0.22 122.14,0 122.14,0 v -17.9 c 0,-1.72 -3.88,2.81 -6.01,5.6 z"
         style="fill:#bdcf46;fill-rule:nonzero"
         id="path5" /></g></g><g
     id="Bogie"
     transform="translate(-351.06527,0.45389706)"
     clip-path="url(#clipPath37)"><g
       transform="matrix(1.0145,0,0,0.833333,383.128,21.1627)"
       id="g7" /><g
       transform="matrix(0.974184,0,0,0.975398,387.186,5.03056)"
       id="g8"><path
         d="m 94.314,109.202 c 0,5.103 -4.139,9.227 -9.234,9.227 -5.103,0 -9.243,-4.132 -9.243,-9.227 0,-5.11 4.14,-9.227 9.243,-9.227 5.095,0 9.234,4.124 9.234,9.227 z"
         style="fill:#212121"
         id="path7" /></g><g
       transform="matrix(0.974184,0,0,0.975398,383.38,5.03056)"
       id="g9"><path
         d="m 33.551,109.202 c 0,5.103 -4.14,9.227 -9.235,9.227 -5.103,0 -9.242,-4.132 -9.242,-9.227 0,-5.11 4.14,-9.227 9.242,-9.227 5.096,0 9.235,4.124 9.235,9.227 z"
         style="fill:#212121"
         id="path8" /></g><g
       transform="matrix(0.974184,0,0,0.975398,384.231,5.03056)"
       id="g10"><path
         d="m 52.18,109.202 c 0,5.103 -4.139,9.227 -9.234,9.227 -5.103,0 -9.242,-4.132 -9.242,-9.227 0,-5.11 4.139,-9.227 9.242,-9.227 5.103,0 9.235,4.124 9.235,9.227 z"
         style="fill:#212121"
         id="path9" /></g></g><g
     id="Livery"
     transform="translate(-235.15438,0.12094274)"
     clip-path="none"
     style="fill:#fcc21b"><g
       clip-path="none"
       id="g16"
       style="fill:#fcc21b" /><path
       d="m 312,40.879 h 51.15437 V 113 l -92.30101,0 C 259.21395,113 250.42985,110.90708 250.42985,99.522388 250.42985,90.753582 259.31041,76.65074 271,61 284.86095,42.44211 303.74982,40.879 312,40.879 Z"
       clip-rule="nonzero"
       id="path10"
       sodipodi:nodetypes="sccssss" /></g><g
     id="Windows"
     transform="translate(-235.15438,0.12094274)"
     clip-path="url(#clipPath33)"><g
       transform="matrix(0.71309,0,0,0.999109,95.4587,-0.0488068)"
       id="g17"><path
         d="M 374,55.002 C 374,53.897 372.743,53 371.195,53 H 312 v 28 h 59.195 C 372.743,81 374,80.103 374,78.998 Z"
         style="fill:#42ade7"
         id="path16" /></g><g
       transform="matrix(1.08333,0,0,1.403,-7.05713,-27.0668)"
       id="g18"><path
         d="m 301.118,76.94 h -19.606 c -1.215,0 -2.337,-0.502 -2.942,-1.315 -0.605,-0.813 -0.601,-1.814 0.01,-2.624 3.346,-4.9 8.962,-12.827 11.461,-14.19 C 293.313,57.026 300,57 300,57 l 1.118,-0.018 z"
         style="fill:#42ade7"
         id="path17" /></g><g
       transform="matrix(1,0,0,1.00303,-6.81535,-0.293948)"
       id="g19"><path
         id="path18"
         style="fill:#42ade7"
         d="m 302.16116,57.05482 c -3.352,0.137 -10.67111,0.58628 -13.16211,1.945278 -2.186,1.191999 -6.38689,7.340589 -9.46289,12.080584 -0.833,1.110999 -0.9648,2.596035 -0.3418,3.836034 0.623,1.239998 1.89511,2.023166 3.28711,2.023166 h 7.85742 c 0.298,0 0.57529,-0.151181 0.73829,-0.399181 1.51399,-2.312997 9.19314,-14.039563 11.86914,-18.132559 0.182,-0.277 0.19139,-0.631143 0.0254,-0.917143 -0.165,-0.285 -0.47955,-0.454179 -0.81055,-0.436179 z" /></g><g
       transform="matrix(1.77778,0,0,0.909091,-367.179,3.24264)"
       id="g20"><path
         d="m 408,61.2 c 0,-1.214 -0.504,-2.2 -1.125,-2.2 h -15.75 C 390.504,59 390,59.986 390,61.2 v 17.6 c 0,1.214 0.504,2.2 1.125,2.2 h 15.75 C 407.496,81 408,80.014 408,78.8 Z"
         style="fill:#94d4f1"
         id="path19" /></g></g><g
     transform="matrix(0.99999846,0,0,0.49072513,-3.6109e-4,65.187058)"
     id="g21"
     clip-path="url(#clipPath30)"><rect
       x="0"
       y="117.809"
       width="128"
       height="10.191"
       style="fill:#5d4037;fill-rule:nonzero"
       id="rect20" /></g><g
     transform="matrix(0.99999846,0,0,1.99293,-3.6109e-4,-124.33162)"
     id="g22"
     clip-path="url(#clipPath28)"><rect
       x="0"
       y="122.611"
       width="128"
       height="2.0039999"
       style="fill:#383838;fill-rule:nonzero"
       id="rect21" /></g></svg>

<?xml version="1.0" encoding="UTF-8" standalone="no"?><!DOCTYPE svg PUBLIC "-//W3C//DTD SVG 1.1//EN" "http://www.w3.org/Graphics/SVG/1.1/DTD/svg11.dtd"><svg width="128px" height="128px" version="1.1" xmlns="http://www.w3.org/2000/svg" xmlns:xlink="http://www.w3.org/1999/xlink" xml:space="preserve" xmlns:serif="http://www.serif.com/" style="fill-rule:evenodd;clip-rule:evenodd;stroke-linejoin:round;stroke-miterlimit:2;"><g transform="matrix(1,0,0,1,-256,0)"><g id="High-Speed-Train" serif:id="High Speed Train"></g><g transform="matrix(1.00235,0,0,1.0101,127.85,1.0101)"><g id="Steam-Locomotive" serif:id="Steam Locomotive"><rect x="71.96" y="32.66" width="55.89" height="6.93" style="fill:#2f2f2f;"/></g></g><g id="Mountain-Railway" serif:id="Mountain Railway"><clipPath id="_clip1"><rect x="256" y="0.024" width="128" height="127.977"/></clipPath><g clip-path="url(#_clip1)"><g id="Mountain" transform="matrix(1.04798,0,0,1.04798,-15.3524,-3.14393)"><clipPath id="_clip2"><rect x="258.93" y="3.023" width="122.14" height="122.118"/></clipPath><g clip-path="url(#_clip2)"><g transform="matrix(1.20326,0,0,1.20326,242.991,-26.0179)"><path d="M56.625,24.117C55.039,24.112 53.325,24.353 51.48,24.837C48.316,25.667 46.775,28.237 45.654,30.117C45.152,30.947 44.649,31.81 44.17,32.219L44.008,32.348C43.225,33.037 43.072,33.141 42.558,33.246C41.554,33.456 41.135,33.258 40.025,32.709C38.495,31.962 36.195,30.816 32.879,31.855C29.516,32.93 27.249,36.143 24.879,40.639C22.379,45.379 18.832,54.52 13.246,66.146L13.246,125.623L114.754,125.623L114.754,69.358C102.33,45.418 101.23,42.85 100.352,41.395C98.915,39.002 95.867,37.04 93.508,37.169C91.149,37.297 88.44,38.639 87.028,40.694C86.572,41.372 83.268,46.254 78.83,52.829C77.534,50.26 76.295,47.843 75.174,45.612C70.666,36.726 68.284,32.018 67.607,30.851C64.997,26.358 61.383,24.131 56.625,24.116L56.625,24.117Z" style="fill:#8d6b63;fill-rule:nonzero;"/></g><g transform="matrix(1.20326,0,0,1.20326,242.991,-26.0179)"><path d="M90.554,67.473C89.433,67.379 88.65,66.515 87.868,65.628C86.63,64.203 84.972,61.763 82.683,57.71C82.683,57.71 89.223,48.649 89.69,48.041C92.831,44.164 95.295,46.804 96.51,48.438C97.035,49.139 105.198,63.047 105.338,63.923C105.408,64.367 105.221,64.518 105.046,64.752C104.952,64.88 104.999,65.359 103.329,65.242C103.129,65.234 102.93,65.21 102.734,65.172C102.238,65.092 101.75,64.971 101.274,64.81C100.737,64.624 98.868,63.981 97.385,64.156C96.871,64.215 96.778,64.332 94.407,65.698C91.663,67.321 91.184,67.531 90.554,67.473ZM35.716,40.976C36.452,40.871 38.706,41.116 39.546,41.466C40.457,41.852 43.762,42.214 45.116,41.922C46.261,41.677 47.032,41.409 48.561,39.727C50.29,37.835 51.387,34.811 52.964,33.748C55.954,31.74 59.153,33.655 60.671,36.282C61.267,37.31 64.256,43.207 68.028,50.657C68.495,51.58 69.406,53.39 71.228,56.987C73.341,61.144 74.322,63.281 73.738,64.729C73.446,65.453 72.769,66.317 71.858,66.527C70.574,66.819 69.92,65.557 67.689,64.752C66.872,64.46 64.455,63.608 62.995,64.647C61.909,65.417 62.341,66.539 61.325,68.711C61.056,69.283 59.865,71.829 57.88,72.774C54.856,74.222 50.804,71.584 49.426,70.684C44.743,67.636 43.949,63.829 40.971,64.004C40.177,64.051 39.395,64.121 37.701,64.997C35.039,66.363 34.829,67.473 32.937,68.395C31.804,68.945 29.048,70.287 26.362,69.225C26.035,69.096 23.98,68.045 23.688,65.558C23.548,64.343 24.05,63.351 24.342,62.884C32.33,44.842 33.042,41.362 35.716,40.976Z" style="fill:#fafafa;fill-rule:nonzero;"/></g><g transform="matrix(1,0,0,1,256,1.06068)"><path d="M119.06,106.566C118.57,107.206 118.21,107.906 117.41,108.036C115.77,108.306 114.28,109.036 113.09,110.086C112.3,110.786 111.14,110.886 110.25,110.306L110.23,110.286C108.32,106.676 104.7,105.026 100.33,105.026C96.22,105.026 92.45,106.386 90.45,109.656C89.89,110.556 88.77,110.856 87.81,110.396C86.614,109.823 85.295,109.555 83.97,109.616C83.01,109.656 82.16,109.066 81.8,108.176C79.74,102.976 74.85,100.776 68.91,100.776C62.8,100.776 57.44,103.166 55.49,108.606C55.31,109.106 54.99,109.546 54.52,109.816C54.3,109.946 54.08,110.086 53.88,110.246C53.27,110.736 52.44,110.766 51.73,110.436C50.589,109.909 49.347,109.636 48.09,109.636C46.75,109.636 45.48,109.946 44.34,110.496C43.48,110.906 42.46,110.736 41.8,110.046C40.17,108.326 37.9,107.352 35.53,107.356C33.01,107.356 30.75,108.436 29.16,110.146C28.4,110.976 27.16,111.016 26.29,110.296C25.387,109.55 24.251,109.143 23.08,109.146C22.03,109.146 21.06,109.476 20.26,110.026C19.87,110.296 18.8,110.436 17.79,110.086C16.96,109.806 16.2,109.136 15.69,108.426C12.12,103.376 7.68,101.466 6.39,100.866C3.99,99.736 2.93,100.056 2.93,100.056L2.93,118.866C2.93,119.086 125.07,118.866 125.07,118.866L125.07,100.966C125.07,99.246 121.19,103.776 119.06,106.566Z" style="fill:#bdcf46;fill-rule:nonzero;"/></g></g></g><g id="Railcar" transform="matrix(2.3251,0,0,2.3251,-389.309,-162.351)"><g id="Bogie" transform="matrix(0.430089,0,0,0.430089,126.551,70.0206)"><g transform="matrix(1.0145,0,0,0.833333,383.128,21.1627)"><rect x="52.18" y="109.66" width="23.657" height="1.2" style="fill:#2b2b2b;fill-rule:nonzero;"/></g><g transform="matrix(0.974184,0,0,0.975398,387.186,5.03056)"><path d="M94.314,109.202C94.314,114.305 90.175,118.429 85.08,118.429C79.977,118.429 75.837,114.297 75.837,109.202C75.837,104.092 79.977,99.975 85.08,99.975C90.175,99.975 94.314,104.099 94.314,109.202Z" style="fill:#212121;"/></g><g transform="matrix(0.974184,0,0,0.975398,383.38,5.03056)"><path d="M33.551,109.202C33.551,114.305 29.411,118.429 24.316,118.429C19.213,118.429 15.074,114.297 15.074,109.202C15.074,104.092 19.214,99.975 24.316,99.975C29.412,99.975 33.551,104.099 33.551,109.202Z" style="fill:#212121;"/></g><g transform="matrix(0.974184,0,0,0.975398,384.231,5.03056)"><path d="M52.18,109.202C52.18,114.305 48.041,118.429 42.946,118.429C37.843,118.429 33.704,114.297 33.704,109.202C33.704,104.092 37.843,99.975 42.946,99.975C48.049,99.975 52.181,104.099 52.181,109.202L52.18,109.202Z" style="fill:#212121;"/></g></g><g id="Livery" transform="matrix(0.430089,0,0,0.430089,176.403,69.8774)"><clipPath id="_clip3"><path d="M312,40.879L384,40.879L384,113L289,113C281.554,112.896 268.666,110.992 264.409,110.333C263.457,110.185 262.617,109.625 262.114,108.802C260.947,106.875 259.047,102.976 259.154,98.111C259.154,98.111 258.536,89.384 258.272,85.656C258.193,84.551 258.385,83.443 258.831,82.428C260.645,78.376 265.763,67.408 271,61C285.658,43.065 303.753,41.108 312,40.879Z" clip-rule="nonzero"/></clipPath><g clip-path="url(#_clip3)"><clipPath id="_clip4"><rect x="235.154" y="-0.097" width="128" height="127.977"/></clipPath><g clip-path="url(#_clip4)"><g transform="matrix(0.838407,0,0,0.998322,41.2063,0.0685842)"><rect x="255" y="40.879" width="129" height="72.121" style="fill:#afc7cf;"/></g><g transform="matrix(26.7886,0,0,1,-10727.3,8.879)"><rect x="410" y="98" width="4" height="6" style="fill:#616161;"/></g><g transform="matrix(26.7886,0,0,1.66667,-10727.3,-66.4543)"><rect x="410" y="98" width="4" height="6" style="fill:#42ade7;"/></g><g transform="matrix(26.7886,0,0,2.66667,-10727.3,-180.454)"><rect x="410" y="98" width="4" height="6" style="fill:#81cdee;"/></g></g></g></g><g id="Windows" transform="matrix(0.430089,0,0,0.430089,176.403,69.8774)"><g transform="matrix(0.71309,0,0,0.999109,95.4587,-0.0488068)"><path d="M374,55.002C374,53.897 372.743,53 371.195,53L312,53L312,81L371.195,81C372.743,81 374,80.103 374,78.998L374,55.002Z" style="fill:#424242;"/></g><g transform="matrix(1.08333,0,0,1.403,-7.05713,-27.0668)"><path d="M301.118,76.94L281.512,76.94C280.297,76.94 279.175,76.438 278.57,75.625C277.965,74.812 277.969,73.811 278.58,73.001C281.926,68.101 287.542,60.174 290.041,58.811C293.313,57.026 300,57 300,57L301.118,56.982L301.118,76.94Z" style="fill:#424242;"/></g><g transform="matrix(1,0,0,1.00303,-6.81535,-0.293948)"><path d="M291.077,76.541C290.914,76.789 290.636,76.94 290.338,76.94C289.102,76.94 285.675,76.94 282.481,76.94C281.089,76.94 279.817,76.156 279.194,74.916C278.571,73.676 278.704,72.191 279.537,71.08C282.613,66.34 286.814,60.192 289,59C291.491,57.641 298.81,57.192 302.162,57.055C302.493,57.037 302.806,57.206 302.971,57.491C303.137,57.777 303.128,58.132 302.946,58.409C300.27,62.502 292.591,74.228 291.077,76.541Z" style="fill:#4b6b75;"/></g><g transform="matrix(1.77778,0,0,0.909091,-367.179,3.24264)"><path d="M408,61.2C408,59.986 407.496,59 406.875,59L391.125,59C390.504,59 390,59.986 390,61.2L390,78.8C390,80.014 390.504,81 391.125,81L406.875,81C407.496,81 408,80.014 408,78.8L408,61.2Z" style="fill:#4b6b75;"/></g></g></g><g id="Rail" transform="matrix(1.99293,0,0,1.99293,-317.739,-123.096)"><g transform="matrix(0.501773,0,0,0.246233,287.887,94.4755)"><rect x="0" y="117.809" width="128" height="10.191" style="fill:#5d4037;fill-rule:nonzero;"/></g><g transform="matrix(0.501773,0,0,1,287.887,-0.62)"><rect x="0" y="122.611" width="128" height="2.004" style="fill:#383838;fill-rule:nonzero;"/></g></g></g></g><g id="Railcar1" serif:id="Railcar"></g><g id="Bullet-Train" serif:id="Bullet Train"></g></g></svg>
